X: 158
T:Lady Charlotte Campbell
M:4/4
L:1/8
K:Bb
E|"Bb"D<FF>B "Eb"E<GG>B|"F7"A<cf>e "Bb"dB "Eb"E<GG>B|
"F7"A/2B/2c F>e "Bb"d<B B :||!
a|"Bb"b>BA>a "Eb"g<G"Bb"F>f|"Cm"e>c e/2d/2c/2B/2 "F7"A<cc>a|"Bb"b>B a>B
"Eb"g>B "Bb"f>B|"F7"A/2B/2c F>e "Bb"da|!
"Bb"b>BA>a "Eb"g<G"Bb"F>f|"Cm"e>c e/2d/2c/2B/2 "F7"A<ccB/2A/2|"Eb"G>B
"Bb"F>B "Cm"EE "Bb"D<B, B,|!
% <A name="D1X159">
